railseventstore.org/static/images/jobvalley.svg

<svg width="284" height="85" viewBox="0 0 284 85" fill="none" xmlns="http://www.w3.org/2000/svg">
<path d="M24.4799 27.7405L39.0099 59.0405C39.7599 59.3905 40.9999 59.2105 41.7899 58.8405C47.6299 56.1205 45.7599 46.9805 41.7799 38.4405C41.7599 38.3905 41.7299 38.3405 41.6999 38.2905C41.6799 38.2305 41.6699 38.1705 41.6399 38.1105L36.8099 27.7505C36.2299 26.5005 34.5199 25.4905 33.0099 25.4905H26.1799C24.6499 25.4805 23.8899 26.5005 24.4799 27.7405Z" fill="#06038D"/>
<path d="M58.9399 27.7505L52.1399 42.3205C51.3899 42.6705 50.1499 42.4905 49.3599 42.1105C44.2999 39.7505 43.9199 34.2105 46.1099 26.7805C46.1999 26.2305 46.5899 25.8805 46.8899 25.7205C47.4699 25.4105 48.0699 25.4905 49.2399 25.4905H57.2499C58.7599 25.4905 59.5199 26.5005 58.9399 27.7505Z" fill="#47D7AC"/>
<path d="M93.5799 46.8305C92.5999 45.8705 92.1099 44.5105 92.1099 42.7605C92.1099 41.0105 92.5999 39.6605 93.5799 38.7105C94.5599 37.7605 95.7299 37.2905 97.0899 37.2905C98.4799 37.2905 99.6599 37.7605 100.63 38.6905C101.59 39.6205 102.08 40.9805 102.08 42.7605C102.08 44.5405 101.6 45.9005 100.63 46.8505C99.6699 47.8005 98.4899 48.2705 97.0899 48.2705C95.7299 48.2705 94.5599 47.7905 93.5799 46.8305ZM88.7299 34.3705C86.4799 36.5805 85.3499 39.3705 85.3499 42.7505C85.3499 46.1305 86.4799 48.9305 88.7299 51.1605C90.9799 53.3805 93.7699 54.5005 97.0899 54.5005C100.44 54.5005 103.23 53.4005 105.47 51.1905C107.71 48.9805 108.83 46.1705 108.83 42.7605C108.83 39.3505 107.71 36.5505 105.47 34.3605C103.23 32.1705 100.44 31.0705 97.0899 31.0705C93.7699 31.0605 90.9899 32.1605 88.7299 34.3705Z" fill="#06038D"/>
<path d="M153.32 31.7005L148.6 45.4405L143.49 31.7005H136.15L145.22 53.8005H152.03L160.43 31.7005H153.32Z" fill="#06038D"/>
<path d="M219.13 37.5305C219.9 36.7605 220.94 36.3705 222.24 36.3705C223.69 36.3705 224.78 36.7405 225.51 37.4805C226.24 38.2205 226.63 39.1005 226.69 40.1005H217.84C217.93 39.1605 218.36 38.3005 219.13 37.5305ZM222.73 48.7305C221.4 48.7305 220.24 48.3205 219.26 47.5105C218.28 46.6905 217.76 45.6805 217.7 44.4605H233.09C233.18 44.1905 233.22 43.5005 233.22 42.3705C233.22 38.8105 232.23 36.0305 230.26 34.0305C228.29 32.0305 225.58 31.0305 222.14 31.0305C219.14 31.0305 216.56 32.1105 214.38 34.2805C212.2 36.4405 211.11 39.2505 211.11 42.6905C211.11 46.2805 212.23 49.1405 214.47 51.2705C216.71 53.4005 219.43 54.4705 222.63 54.4705C225.3 54.4705 227.52 53.8105 229.3 52.4905C231.08 51.1705 232.25 49.4905 232.81 47.4405L227.16 45.8405C226.5 47.7705 225.02 48.7305 222.73 48.7305Z" fill="#06038D"/>
<path d="M195.84 23.7205C192.22 23.7205 189.28 26.6405 189.24 30.2505V53.8005H195.84V23.7205Z" fill="#06038D"/>
<path d="M135.75 42.7505C135.75 39.3405 134.63 36.5405 132.39 34.3505C130.15 32.1605 127.36 31.0605 124.01 31.0605C122.12 31.0605 120.41 31.4305 118.87 32.1405V23.7305C115.25 23.7305 112.32 26.6405 112.27 30.2505V42.8705H112.28C112.31 46.2005 113.43 48.9605 115.65 51.1605C117.9 53.3805 120.69 54.5005 124.01 54.5005C127.36 54.5005 130.15 53.4005 132.39 51.1905C134.63 48.9605 135.75 46.1605 135.75 42.7505ZM128.99 42.7505C128.99 44.5305 128.51 45.8905 127.55 46.8405C126.59 47.7905 125.41 48.2605 124.01 48.2605C122.65 48.2605 121.47 47.7805 120.5 46.8105C119.52 45.8505 119.03 44.4905 119.03 42.7405C119.03 40.9905 119.52 39.6405 120.5 38.6905C121.48 37.7405 122.65 37.2705 124.01 37.2705C125.4 37.2705 126.58 37.7405 127.55 38.6705C128.51 39.6105 128.99 40.9705 128.99 42.7505Z" fill="#06038D"/>
<path d="M81.8599 55.3105V31.0305C78.2699 31.0305 75.3399 33.9405 75.1899 37.5805H75.1799V54.6105C75.1799 56.1105 74.4299 56.8505 72.9399 56.8505C72.2399 56.8505 71.5799 56.7605 70.9599 56.5905V62.1305C71.9299 62.5405 73.1599 62.7505 74.6599 62.7505C76.8599 62.7505 78.6099 62.0705 79.9199 60.7005C81.2099 59.3405 81.8599 57.5405 81.8599 55.3105Z" fill="#06038D"/>
<path d="M78.4699 29.8005C79.5499 29.8005 80.4899 29.4205 81.2599 28.6605C82.0399 27.9005 82.4299 26.9705 82.4299 25.8905C82.4299 24.8105 82.0499 23.8805 81.2899 23.1205C80.5299 22.3605 79.5899 21.9805 78.4699 21.9805C77.4099 21.9805 76.4999 22.3605 75.7399 23.1205C74.9799 23.8805 74.5999 24.8105 74.5999 25.8905C74.5999 26.9805 74.9799 27.9005 75.7399 28.6605C76.5099 29.4205 77.4199 29.8005 78.4699 29.8005Z" fill="#06038D"/>
<path d="M184.6 41.6205C184.37 38.7205 183.27 36.3005 181.29 34.3505C179.05 32.1605 176.26 31.0605 172.91 31.0605C169.59 31.0605 166.8 32.1605 164.55 34.3705C162.3 36.5805 161.17 39.3705 161.17 42.7505C161.17 46.1305 162.3 48.9305 164.55 51.1605C166.8 53.3805 169.59 54.5005 172.91 54.5005C174.74 54.5005 176.39 54.1605 177.89 53.5005C177.89 53.5005 178.85 52.9705 179.41 52.1505L179.38 53.7905H184.65V42.7805C184.65 42.7705 184.65 42.7705 184.65 42.7605C184.65 42.7505 184.65 42.7505 184.65 42.7405L184.6 41.6205ZM176.44 38.6905C177.4 39.6205 177.88 40.9705 177.88 42.7305V42.7805C177.88 44.5505 177.39 45.9005 176.44 46.8405C175.48 47.7905 174.3 48.2605 172.9 48.2605C171.54 48.2605 170.36 47.7805 169.39 46.8105C168.41 45.8505 167.92 44.4905 167.92 42.7405C167.92 40.9905 168.41 39.6405 169.39 38.6905C170.37 37.7405 171.54 37.2705 172.9 37.2705C174.3 37.2905 175.48 37.7505 176.44 38.6905Z" fill="#06038D"/>
<path d="M259.18 31.7005H252.01L246.98 43.8505L241.45 31.7005H233.88L243.34 51.1405L238.31 62.6105H245.43L259.18 31.7005Z" fill="#06038D"/>
<path d="M207.04 23.7205C203.42 23.7205 200.48 26.6405 200.44 30.2505V53.8005H207.04V23.7205Z" fill="#06038D"/>
</svg>

<?xml version="1.0" encoding="utf-8"?>
<!-- Generator: Adobe Illustrator 26.0.3, SVG Export Plug-In . SVG Version: 6.00 Build 0)  -->
<svg version="1.1" id="Ebene_1" xmlns="http://www.w3.org/2000/svg" xmlns:xlink="http://www.w3.org/1999/xlink" x="0px" y="0px"
	 viewBox="0 0 283.46 84.72" style="enable-background:new 0 0 283.46 84.72;" xml:space="preserve">
<style type="text/css">
	.st0{fill:#06038D;}
	.st1{fill:#47D7AC;}
</style>
<g>
	<path class="st0" d="M24.48,27.74l14.53,31.3c0.75,0.35,1.99,0.17,2.78-0.2c5.84-2.72,3.97-11.86-0.01-20.4
		c-0.02-0.05-0.05-0.1-0.08-0.15c-0.02-0.06-0.03-0.12-0.06-0.18l-4.83-10.36c-0.58-1.25-2.29-2.26-3.8-2.26h-6.83
		C24.65,25.48,23.89,26.5,24.48,27.74L24.48,27.74z"/>
	<path class="st1" d="M58.94,27.75l-6.8,14.57c-0.75,0.35-1.99,0.17-2.78-0.21c-5.06-2.36-5.44-7.9-3.25-15.33
		c0.09-0.55,0.48-0.9,0.78-1.06c0.58-0.31,1.18-0.23,2.35-0.23h8.01C58.76,25.49,59.52,26.5,58.94,27.75L58.94,27.75z"/>
	<path class="st0" d="M93.58,46.83c-0.98-0.96-1.47-2.32-1.47-4.07c0-1.75,0.49-3.1,1.47-4.05c0.98-0.95,2.15-1.42,3.51-1.42
		c1.39,0,2.57,0.47,3.54,1.4c0.96,0.93,1.45,2.29,1.45,4.07c0,1.78-0.48,3.14-1.45,4.09c-0.96,0.95-2.14,1.42-3.54,1.42
		C95.73,48.27,94.56,47.79,93.58,46.83L93.58,46.83z M88.73,34.37c-2.25,2.21-3.38,5-3.38,8.38c0,3.38,1.13,6.18,3.38,8.41
		c2.25,2.22,5.04,3.34,8.36,3.34c3.35,0,6.14-1.1,8.38-3.31c2.24-2.21,3.36-5.02,3.36-8.43c0-3.41-1.12-6.21-3.36-8.4
		c-2.24-2.19-5.03-3.29-8.38-3.29C93.77,31.06,90.99,32.16,88.73,34.37L88.73,34.37z"/>
	<polygon class="st0" points="153.32,31.7 148.6,45.44 143.49,31.7 136.15,31.7 145.22,53.8 152.03,53.8 160.43,31.7 153.32,31.7 	
		"/>
	<path class="st0" d="M219.13,37.53c0.77-0.77,1.81-1.16,3.11-1.16c1.45,0,2.54,0.37,3.27,1.11c0.73,0.74,1.12,1.62,1.18,2.62h-8.85
		C217.93,39.16,218.36,38.3,219.13,37.53L219.13,37.53z M222.73,48.73c-1.33,0-2.49-0.41-3.47-1.22c-0.98-0.82-1.5-1.83-1.56-3.05
		h15.39c0.09-0.27,0.13-0.96,0.13-2.09c0-3.56-0.99-6.34-2.96-8.34s-4.68-3-8.12-3c-3,0-5.58,1.08-7.76,3.25
		c-2.18,2.16-3.27,4.97-3.27,8.41c0,3.59,1.12,6.45,3.36,8.58c2.24,2.13,4.96,3.2,8.16,3.2c2.67,0,4.89-0.66,6.67-1.98
		c1.78-1.32,2.95-3,3.51-5.05l-5.65-1.6C226.5,47.77,225.02,48.73,222.73,48.73L222.73,48.73L222.73,48.73z"/>
	<path class="st0" d="M195.84,53.79V30.32v-0.07v-6.53c-3.62,0-6.56,2.92-6.6,6.53h0v23.55H195.84L195.84,53.79z"/>
	<path class="st0" d="M135.75,42.75c0-3.41-1.12-6.21-3.36-8.4c-2.24-2.19-5.03-3.29-8.38-3.29c-1.89,0-3.6,0.37-5.14,1.08v-8.41
		c-3.62,0-6.55,2.91-6.6,6.52h0v12.62h0.01c0.03,3.33,1.15,6.09,3.37,8.29c2.25,2.22,5.04,3.34,8.36,3.34c3.35,0,6.14-1.1,8.38-3.31
		C134.63,48.96,135.75,46.16,135.75,42.75L135.75,42.75z M128.99,42.75c0,1.78-0.48,3.14-1.44,4.09c-0.96,0.95-2.14,1.42-3.54,1.42
		c-1.36,0-2.54-0.48-3.51-1.45c-0.98-0.96-1.47-2.32-1.47-4.07c0-1.75,0.49-3.1,1.47-4.05c0.98-0.95,2.15-1.42,3.51-1.42
		c1.39,0,2.57,0.47,3.54,1.4C128.51,39.61,128.99,40.97,128.99,42.75L128.99,42.75z"/>
	<path class="st0" d="M81.86,55.31V31.03c-3.59,0-6.52,2.91-6.67,6.55h-0.01v17.03c0,1.5-0.75,2.24-2.24,2.24
		c-0.7,0-1.36-0.09-1.98-0.26v5.54c0.97,0.41,2.2,0.62,3.7,0.62c2.2,0,3.95-0.68,5.26-2.05C81.21,59.34,81.86,57.54,81.86,55.31
		L81.86,55.31z"/>
	<path class="st0" d="M78.47,29.8c1.08,0,2.02-0.38,2.79-1.14c0.78-0.76,1.17-1.69,1.17-2.77c0-1.08-0.38-2.01-1.14-2.77
		c-0.76-0.76-1.7-1.14-2.82-1.14c-1.06,0-1.97,0.38-2.73,1.14c-0.76,0.76-1.14,1.69-1.14,2.77c0,1.09,0.38,2.01,1.14,2.77
		C76.51,29.42,77.42,29.8,78.47,29.8L78.47,29.8L78.47,29.8z"/>
	<path class="st0" d="M184.6,41.62c-0.23-2.9-1.33-5.32-3.31-7.27c-2.24-2.19-5.03-3.29-8.38-3.29c-3.32,0-6.11,1.1-8.36,3.31
		c-2.25,2.21-3.38,5-3.38,8.38c0,3.38,1.13,6.18,3.38,8.41c2.25,2.22,5.04,3.34,8.36,3.34c1.83,0,3.48-0.34,4.98-1
		c0,0,0.96-0.53,1.52-1.35l-0.03,1.64h5.27V42.78c0-0.01,0-0.01,0-0.02c0-0.01,0-0.01,0-0.02L184.6,41.62L184.6,41.62z
		 M176.44,38.69c0.96,0.93,1.44,2.28,1.44,4.04v0.05c0,1.77-0.49,3.12-1.44,4.06c-0.96,0.95-2.14,1.42-3.54,1.42
		c-1.36,0-2.54-0.48-3.51-1.45c-0.98-0.96-1.47-2.32-1.47-4.07c0-1.75,0.49-3.1,1.47-4.05c0.98-0.95,2.15-1.42,3.51-1.42
		C174.3,37.29,175.48,37.75,176.44,38.69L176.44,38.69z"/>
	<polygon class="st0" points="259.18,31.7 252.01,31.7 246.98,43.85 241.45,31.7 233.88,31.7 243.34,51.14 238.31,62.61 
		245.43,62.61 259.18,31.7 	"/>
	<path class="st0" d="M207.04,53.79V30.32v-0.07v-6.53c-3.62,0-6.56,2.92-6.6,6.53h0v23.55H207.04L207.04,53.79z"/>
</g>
</svg>
